!!!!SEGMENT: pl-wtm--r-1226--013_lodwigowski-edward-stefan--byla-babulenka.krn
!!!cenid: 18xx:1929
!!!COM: Łodwigowski, Edward Stefan
!!!COM-rismID: pe30111147
!!!CDT: 1815/08/14-1895/11/12
!!!CNT: Polish
!!!OTL: Była babuleńka
!!!PDT:
!!!AGN:
!!!SMS-siglum: PL-Wtm
!!!SMS-shelfmark: R 1226
!!!SMS-shelfwork: 013 W
!!!SMS-variant:
!!!SMS-altvar:
!!!NIFC-rismSourceID: 1001084000
!!!NIFC-islandoraID:
!!!URL-pdf-islandora:
!!!URL-scan:
!!!ONB-nifc: UWAGA: No. 61
!!!OMD: No 61. Allegretto
!!!AIN: 1 forte
!!!key:
**kern	**kern	**dynam	**fing
*part1	*part1	*part1	*
*staff2	*staff1	*	*
*Iforte	*Iforte	*	*
*I"Fortepian	*I"Fortepian	*	*
*clefF4	*clefG2	*	*
*k[b-e-]	*k[b-e-]	*	*
*B-:	*B-:	*	*
*M3/4	*M3/4	*	*
*>[A,A,,B,B1,B,B2]	*>[A,A,,B,B1,B,B2]	*>[A,A,,B,B1,B,B2]	*>[A,A,,B,B1,B,B2]
=1	=1	=1	=1
*all\right	*all\right	*	*
*>A	*>A	*>A	*>A
*clefG2	*	*	*
!	!LO:TX:a:t=Była Babuleńka. P.L.P.	!	!
4f 4d 4B-'/	8.ff\L	mf	4
.	16ff\Jk	.	.
4g 4c#X 4B-'/	4een\	.	.
4en 4c# 4B-'/	4gg\	.	.
=2	=2	=2	=2
*	*2\right	*	*
8.fL 8.d 8.B-/	2ff\	.	.
16fJk 16d 16B-/	.	.	.
2f 2d 2B-/	.	.	.
.	4ee-\	.	.
=3	=3	=3	=3
*^	*	*	*
*	*2\right	*	*	*
4r	2.B-\	8dd\L	.	.
.	.	8cc\J	.	.
4f 4d'</	.	4b-\	.	.
4f 4d'</	.	4dd\	.	.
=4	=4	=4	=4	=4
4r	2.F\	8cc/L	.	.
.	.	8a/J	.	.
4c 4A'</	.	4f/	.	.
4e- 4c'</	.	4r	.	.
*v	*v	*	*	*
!!LO:PB:g=original
=5:|!|:	=5:|!|:	=5:|!|:	=5:|!|:
*>B	*>B	*>B	*>B
8f 8d 8B-/|	8bb- 8ff 8dd\|	f	.
8r	8r	.	.
2f 2d 2B-^/	2ff 2dd^\	.	.
=6	=6	=6	=6
8f 8d 8B-/|	8bb- 8ff 8dd\|	.	.
8r	8r	.	.
2f 2d 2B-^/	2ff 2dd^\	.	.
=7	=7	=7	=7
*^	*	*	*
4r	2.B-\	(8dd\L	.	2
.	.	8ee-\	.	.
4f 4d/	.	8ff\	.	.
.	.	8gg\	.	.
4f 4d/	.	8ff\	.	.
.	.	8een\J)	.	.
=8	=8	=8	=8	=8
4r	2.B-\	4ff\	.	.
4f 4d/	.	4dd\	.	.
4f 4d/	.	4ff\	.	.
=9	=9	=9	=9	=9
4r	2.B-\	8dd\L	.	2
.	.	8cc\J	.	1
4f 4d/	.	4b-\	.	2
4f 4d/	.	4dd\	.	4
=10	=10	=10	=10	=10
!LO:TX:a:t=1a	!	!	!	!
*>B1	*>B1	*>B1	*>B1	*>B1
4r	2.F\	8cc/L	.	.
.	.	8a/J	.	.
4c 4A/	.	4f/	.	.
4e- 4c/	.	4r	.	.
=11:|!	=11:|!	=11:|!	=11:|!	=11:|!
!LO:TX:a:t=2a	!	!	!	!
*>B2	*>B2	*>B2	*>B2	*>B2
4e-/	4F\	8cc\L	.	.
.	.	8a\J	.	.
4d/	4B-\	4b-\	.	.
4r	4ryy	4r	.	.
*v	*v	*	*	*
==	==	==	==
*-	*-	*-	*-
!!!system-decoration: {s1,s2}
!!!RDF**kern: < = below
!!!RDF**kern: | = vertical stroke
!!!ENC: Marta Lawrence
!!!END: 2021-05-02
!!!ENC: Andrzej Gręziak
!!!END: 2021-04-17
!!!YEC: Copyright 2022 Narodowy Instytut Fryderyka Chopina (https://polishscores.org)
!!!YEM: Licence CC BY 4.0 (https://creativecommons.org/licenses/by/4.0)
